X:189
T: WO WARST DU DEN GEWESEN
N: K2444
O: Europa, Mitteleuropa, Deutschland, Rheinland, Oberdiebach
R: Kinder - Lied, Tanz -, Lauf - Spiel
M: 3/4
L: 1/8
K: G
D2 | GGG2B2 | d2B2
c2 | B4A2 | G4
BB | d2B2BB | c2A2
A2 | B2G2G2 | e2d2
BB | d2B2BB | c2A2
A2 | B2F2F2 | G4

